images/telegram.svg

<svg width="28" height="28" viewBox="0 0 28 28" fill="none" xmlns="http://www.w3.org/2000/svg">
<rect width="28" height="28" rx="14" fill="#419FD9"/>
<rect width="28" height="28" rx="14" fill="url(#paint0_linear_300_1852)"/>
<path d="M6.29263 13.6888C10.3639 11.8777 13.0787 10.6837 14.4371 10.1069C18.3155 8.45982 19.1214 8.1737 19.6466 8.16415C19.7622 8.16218 20.0205 8.19141 20.1878 8.33004C20.3291 8.44709 20.368 8.60521 20.3866 8.71619C20.4052 8.82717 20.4283 9.07999 20.4099 9.27753C20.1998 11.5322 19.2903 17.0038 18.8277 19.5291C18.6319 20.5977 18.2464 20.956 17.8733 20.991C17.0623 21.0672 16.4464 20.4438 15.6609 19.9181C14.4317 19.0954 13.7374 18.5833 12.5442 17.7805C11.1654 16.8528 12.0592 16.3429 12.845 15.5096C13.0507 15.2915 16.624 11.973 16.6932 11.6719C16.7018 11.6343 16.7099 11.4939 16.6282 11.4198C16.5465 11.3457 16.426 11.3711 16.339 11.3912C16.2158 11.4198 14.2522 12.7449 10.4483 15.3666C9.89091 15.7574 9.38607 15.9478 8.93375 15.9378C8.43511 15.9268 7.47592 15.65 6.76286 15.4133C5.88826 15.123 5.19315 14.9696 5.25367 14.4766C5.2852 14.2198 5.63152 13.9572 6.29263 13.6888Z" fill="white"/>
<defs>
<linearGradient id="paint0_linear_300_1852" x1="14" y1="0" x2="14" y2="27.7922" gradientUnits="userSpaceOnUse">
<stop stop-color="#2AABEE"/>
<stop offset="1" stop-color="#229ED9"/>
</linearGradient>
</defs>
</svg>

<svg xmlns="http://www.w3.org/2000/svg" width="28" height="28" fill="none"><rect width="28" height="28" fill="#419FD9" rx="14"/><rect width="28" height="28" fill="url(#a)" rx="14"/><path fill="#fff" d="M6.293 13.689q6.106-2.716 8.144-3.582c3.879-1.647 4.684-1.933 5.21-1.943.115-.002.373.027.54.166.142.117.181.275.2.386.018.111.041.364.023.562-.21 2.254-1.12 7.726-1.582 10.251-.196 1.069-.582 1.427-.955 1.462-.81.076-1.427-.547-2.212-1.073-1.23-.823-1.924-1.335-3.117-2.137-1.379-.928-.485-1.438.301-2.271.206-.219 3.779-3.537 3.848-3.838.009-.038.017-.178-.065-.252-.081-.074-.202-.049-.289-.029q-.185.043-5.89 3.976-.837.585-1.515.57c-.499-.01-1.458-.287-2.171-.524-.875-.29-1.57-.443-1.51-.936q.048-.386 1.04-.788"/><defs><linearGradient id="a" x1="14" x2="14" y1="0" y2="27.792" gradientUnits="userSpaceOnUse"><stop stop-color="#2AABEE"/><stop offset="1" stop-color="#229ED9"/></linearGradient></defs></svg>
